src/assets/imgs/profit-two-page/3.svg

<svg fill="none" height="96" viewBox="0 0 97 96" width="97" xmlns="http://www.w3.org/2000/svg"><path d="m96.6335 24.6797-24.4336-24.433606-12.1875 12.187506-2.3438-2.3438-5.9179 5.918c-1.4649 1.4649-2.2266 3.457-2.0508 5.5078.5859 9.1407-2.5781 18.3399-8.6719 25.1367l-39.49218 43.5352c-1.23047 1.3477-1.171879 3.457.11718 4.7461.64454.6445 1.52344.9961 2.40235.9961.82031 0 1.64062-.293 2.28515-.8789l43.5352-39.4336c6.8554-6.1524 16.0547-9.3164 25.1953-8.6719 2.0508.1172 4.0429-.6445 5.5078-2.0508l5.918-5.9179-2.1094-2.1094zm-24.4336-20.33204 20.3906 20.39064-10.1367 10.1367-2.4609-2.4609 3.0468-3.0469-2.0508-2.0508-3.0468 3.0469-2.461-2.461 4.3946-4.3945-2.0508-2.0508-4.3946 4.3946-2.4609-2.461 3.0469-3.0468-2.0508-2.0508-3.0469 3.0468-2.4609-2.4609 4.3945-4.3945-2.0508-2.0508-4.3945 4.3945-2.4609-2.4609zm6.3867 38.55464c-.8789.879-2.1094 1.3477-3.3398 1.2305-9.9024-.6445-19.8633 2.7539-27.3047 9.4336l-43.53518 39.4336c-.23438.2344-.58594.1758-.76172 0-.23438-.2344-.23438-.5859 0-.7617l39.4922-43.5352c6.6211-7.3828 10.0781-17.3437 9.4336-27.2461-.0586-1.2304.3515-2.4609 1.2304-3.3398l3.8672-3.8672 24.8438 24.8438z" fill="#000"/></svg>

<svg width="97" height="96" viewBox="0 0 97 96" fill="none" xmlns="http://www.w3.org/2000/svg">
<path d="M96.6335 24.6797L72.1999 0.246094L60.0124 12.4336L57.6686 10.0898L51.7507 16.0078C50.2858 17.4727 49.5241 19.4648 49.6999 21.5156C50.2858 30.6563 47.1218 39.8555 41.028 46.6523L1.53582 90.1875C0.30535 91.5352 0.363941 93.6445 1.653 94.9336C2.29754 95.5781 3.17644 95.9297 4.05535 95.9297C4.87566 95.9297 5.69597 95.6367 6.3405 95.0508L49.8757 55.6172C56.7311 49.4648 65.9304 46.3008 75.071 46.9453C77.1218 47.0625 79.1139 46.3008 80.5788 44.8945L86.4968 38.9766L84.3874 36.8672L96.6335 24.6797ZM72.1999 4.34766L92.5905 24.7383L82.4538 34.875L79.9929 32.4141L83.0397 29.3672L80.9889 27.3164L77.9421 30.3633L75.4811 27.9023L79.8757 23.5078L77.8249 21.457L73.4303 25.8516L70.9694 23.3906L74.0163 20.3438L71.9655 18.293L68.9186 21.3398L66.4577 18.8789L70.8522 14.4844L68.8014 12.4336L64.4069 16.8281L61.946 14.3672L72.1999 4.34766ZM78.5866 42.9023C77.7077 43.7813 76.4772 44.25 75.2468 44.1328C65.3444 43.4883 55.3835 46.8867 47.9421 53.5664L4.40692 93C4.17254 93.2344 3.82098 93.1758 3.6452 93C3.41082 92.7656 3.41082 92.4141 3.6452 92.2383L43.1374 48.7031C49.7585 41.3203 53.2155 31.3594 52.571 21.457C52.5124 20.2266 52.9225 18.9961 53.8014 18.1172L57.6686 14.25L82.5124 39.0938L78.5866 42.9023Z" fill="black"/>
</svg>
